svg/icon/unity.svg

<svg height="32" viewBox="0 0 32 32" width="32" xmlns="http://www.w3.org/2000/svg" xmlns:xlink="http://www.w3.org/1999/xlink"><defs><linearGradient id="a" x1="50%" x2="50%" y1="0%" y2="100%"><stop offset="0" stop-color="#fff" stop-opacity=".5"/><stop offset="1" stop-opacity=".5"/></linearGradient><circle id="b" cx="16" cy="15" r="15"/><filter id="c" height="111.7%" width="111.7%" x="-5.8%" y="-4.2%"><feOffset dy=".5" in="SourceAlpha" result="shadowOffsetOuter1"/><feGaussianBlur in="shadowOffsetOuter1" result="shadowBlurOuter1" stdDeviation=".5"/><feComposite in="shadowBlurOuter1" in2="SourceAlpha" operator="out" result="shadowBlurOuter1"/><feColorMatrix in="shadowBlurOuter1" values="0 0 0 0 0   0 0 0 0 0   0 0 0 0 0  0 0 0 0.199473505 0"/></filter><filter id="d" height="125%" width="115.9%" x="-8%" y="-8.9%"><feOffset dy=".5" in="SourceAlpha" result="shadowOffsetOuter1"/><feGaussianBlur in="shadowOffsetOuter1" result="shadowBlurOuter1" stdDeviation=".5"/><feColorMatrix in="shadowBlurOuter1" result="shadowMatrixOuter1" values="0 0 0 0 0   0 0 0 0 0   0 0 0 0 0  0 0 0 0.204257246 0"/><feMerge><feMergeNode in="shadowMatrixOuter1"/><feMergeNode in="SourceGraphic"/></feMerge></filter></defs><g fill="none" fill-rule="evenodd"><use fill="#000" filter="url(#c)" xlink:href="#b"/><use fill="#f58634" xlink:href="#b"/><use fill="url(#a)" xlink:href="#b"/><circle cx="16" cy="15" r="14.5" stroke="#000" stroke-opacity=".097"/><g fill="#fff" fill-rule="nonzero" filter="url(#d)" transform="translate(5 8)"><path d="m8.28793103 13.7318182h.00379311c1.18913793-.1442424 2.18893676-.5042424 2.99939656-1.08 1.0747126-.769697 1.612069-1.7475758 1.612069-2.93363638 0-1-.3935345-1.83727273-1.1777587-2.52181818-.7877011-.68363637-1.85387928-1.09787879-3.19853445-1.24272728-.45706896-.05818181-1.10474138-.10181818-1.93732758-.14909091-1.81405173-.11090909-2.99086207-.35818181-3.53612069-.74727272-.19549891-.14100182-.35879776-.31890064-.47982759-.52272728-.1042731-.18768983-.15805232-.39735471-.15646552-.61 0-.56090909.32431035-1.03454545.97672414-1.40727272.65241379-.37272728 1.47646552-.56272728 2.47784483-.56272728.94930874-.00023232 1.89097692.16264561 2.78034483.4809091 3.82629313 1.36363636 7.47905173 6.13181818 9.91327583 9.54545455-1.9837931 1.2054545-4.6844827 1.9481818-7.6601724 1.9481818-.8764801.0006329-1.75163396-.0653312-2.61724137-.1972727zm-4.27862069-1.9418182c-3.49344827-1.2754545-5.02206896-4.42636364-3.29715517-7.48636364.04805956.430882.20707945.84355599.46275862 1.20090909.31956897.44818182.79086207.81363637 1.40724138 1.1009091 2.15448276.93545454 6.11827586.33727272 7.74931033 1.52636363.5493678.4.8240517.91151515.8240517 1.53454546 0 .78303026-.3827873 1.42363636-1.148362 1.92181816-.76557474.4981818-1.7612644.7472727-2.98706899.7472727-1.02969798-.0062039-2.04972578-.1909997-3.01077587-.5454545z"/><path d="m20.9123276 9.87545455v-5.85454546c.6571552.88909091 1.0241379 1.88181818 1.0241379 2.92727273 0 1.04545454-.3669827 2.03727273-1.0241379 2.92727273zm-1.6490517-7.4609091.0047413 7.46181819c-2.3431896-3.32636364-5.8442241-7.51181819-10.14655168-8.90909091-.74300573-.24289308-1.51269187-.40303673-2.29387931-.47727273 1.33200346-.3285315 2.70220982-.49318801 4.07758619-.49 3.3388793 0 6.3344828.93636364 8.3581035 2.41454545z" fill-opacity=".5"/></g></g></svg>

<svg xmlns="http://www.w3.org/2000/svg" xmlns:xlink="http://www.w3.org/1999/xlink" width="32" height="32" viewBox="0 0 32 32">
  <defs>
    <linearGradient id="unity-c" x1="50%" x2="50%" y1="0%" y2="100%">
      <stop offset="0%" stop-color="#FFF" stop-opacity=".5"/>
      <stop offset="100%" stop-opacity=".5"/>
    </linearGradient>
    <circle id="unity-b" cx="16" cy="15" r="15"/>
    <filter id="unity-a" width="111.7%" height="111.7%" x="-5.8%" y="-4.2%" filterUnits="objectBoundingBox">
      <feOffset dy=".5" in="SourceAlpha" result="shadowOffsetOuter1"/>
      <feGaussianBlur in="shadowOffsetOuter1" result="shadowBlurOuter1" stdDeviation=".5"/>
      <feComposite in="shadowBlurOuter1" in2="SourceAlpha" operator="out" result="shadowBlurOuter1"/>
      <feColorMatrix in="shadowBlurOuter1" values="0 0 0 0 0   0 0 0 0 0   0 0 0 0 0  0 0 0 0.199473505 0"/>
    </filter>
    <filter id="unity-d" width="115.9%" height="125%" x="-8%" y="-8.9%" filterUnits="objectBoundingBox">
      <feOffset dy=".5" in="SourceAlpha" result="shadowOffsetOuter1"/>
      <feGaussianBlur in="shadowOffsetOuter1" result="shadowBlurOuter1" stdDeviation=".5"/>
      <feColorMatrix in="shadowBlurOuter1" result="shadowMatrixOuter1" values="0 0 0 0 0   0 0 0 0 0   0 0 0 0 0  0 0 0 0.204257246 0"/>
      <feMerge>
        <feMergeNode in="shadowMatrixOuter1"/>
        <feMergeNode in="SourceGraphic"/>
      </feMerge>
    </filter>
  </defs>
  <g fill="none" fill-rule="evenodd">
    <use fill="#000" filter="url(#unity-a)" xlink:href="#unity-b"/>
    <use fill="#F58634" xlink:href="#unity-b"/>
    <use fill="url(#unity-c)" style="mix-blend-mode:soft-light" xlink:href="#unity-b"/>
    <circle cx="16" cy="15" r="14.5" stroke="#000" stroke-opacity=".097"/>
    <g fill="#FFF" fill-rule="nonzero" filter="url(#unity-d)" transform="translate(5 8)">
      <path d="M8.28793103,13.7318182 L8.29172414,13.7318182 C9.48086207,13.5875758 10.4806609,13.2275758 11.2911207,12.6518182 C12.3658333,11.8821212 12.9031897,10.9042424 12.9031897,9.71818182 C12.9031897,8.71818182 12.5096552,7.88090909 11.725431,7.19636364 C10.9377299,6.51272727 9.87155172,6.09848485 8.52689655,5.95363636 C8.06982759,5.89545455 7.42215517,5.85181818 6.58956897,5.80454545 C4.77551724,5.69363636 3.5987069,5.44636364 3.05344828,5.05727273 C2.85794937,4.91627091 2.69465052,4.73837209 2.57362069,4.53454545 C2.46934759,4.34685562 2.41556837,4.13719074 2.41715517,3.92454545 C2.41715517,3.36363636 2.74146552,2.89 3.39387931,2.51727273 C4.0462931,2.14454545 4.87034483,1.95454545 5.87172414,1.95454545 C6.82103288,1.95431313 7.76270106,2.11719106 8.65206897,2.43545455 C12.4783621,3.79909091 16.1311207,8.56727273 18.5653448,11.9809091 C16.5815517,13.1863636 13.8808621,13.9290909 10.9051724,13.9290909 C10.0286923,13.9297238 9.15353844,13.8637597 8.28793103,13.7318182 Z M4.00931034,11.79 C0.515862069,10.5145455 -1.01275862,7.36363636 0.712155172,4.30363636 C0.760214725,4.73451836 0.919234624,5.14719235 1.17491379,5.50454545 C1.49448276,5.95272727 1.96577586,6.31818182 2.58215517,6.60545455 C4.73663793,7.54090909 8.70043103,6.94272727 10.3314655,8.13181818 C10.8808333,8.53181818 11.1555172,9.04333333 11.1555172,9.66636364 C11.1555172,10.4493939 10.7727299,11.09 10.0071552,11.5881818 C9.24158046,12.0863636 8.2458908,12.3354545 7.02008621,12.3354545 C5.99038823,12.3292506 4.97036043,12.1444548 4.00931034,11.79 Z"/>
      <path fill-opacity=".5" d="M20.9123276,9.87545455 L20.9123276,4.02090909 C21.5694828,4.91 21.9364655,5.90272727 21.9364655,6.94818182 C21.9364655,7.99363636 21.5694828,8.98545455 20.9123276,9.87545455 Z M19.2632759,2.41454545 L19.2680172,9.87636364 C16.9248276,6.55 13.4237931,2.36454545 9.12146552,0.967272727 C8.37845979,0.724379646 7.60877365,0.564235998 6.82758621,0.49 C8.15958967,0.161468497 9.52979603,-0.00318801343 10.9051724,2.87218708e-16 C14.2440517,2.87218708e-16 17.2396552,0.936363636 19.2632759,2.41454545 Z"/>
    </g>
  </g>
</svg>
